X: 40019
T: Three Sea Captains, The
R: jig
M: 6/8
K: Gmajor
G2 G BGB|c2 A F2 A|G2 G BGB|d2 B G2 B|
cec A2 A|BdB G3|A2 B c2 B|AB/A/G FED|
GDG BGB|c2 A FGA|G2 G BGB|d2 B G2 B|
cec A2 A|B/c/dB G2 F|EcB AGF|G3 G||( ~ or:|)
g2 g dcB|AA/B/c def|g2 g dBd|ecA A3|
g2 a bge|f2 g afd|e2 f g2 f|edc d3|
c2 d ecA|B2 c dBG|A2 B c2 B|ABG FED|
GDG BG/A/B|c2 A F2 A|G2 G BGB|d2 B GAB|
cec A2 c|BdB G3|EcB AGF|G3- G2||

